X:1
T:None but Jesus
T:None but Jesus
T:Robert Lowry
T:Robert Lowry, 1867
T:Public Domain Courtesy of the Cyber Hymnal™
C:Robert Lowry
Z:Public Domain
Z:Courtesy of the Cyber Hymnal™
%%score ( 1 2 ) ( 3 4 )
L:1/8
Q:1/4=115
M:4/4
K:Eb
V:1 treble 
V:2 treble 
V:3 bass 
V:4 bass 
V:1
 [GB]2 [Ac]2 [GB]2 [EG]2 | [DF]4 E4 | [DF]2 [DF]2 [DF]2 E2 | [EG]2 [EB]2 [EB]4 | %4
w: 1.~Weep- ing will not|save me—|Tho’ my face were|bathed in tears,|
w: 2.~Work- ing will not|save me—|Pur- est deeds that|I can do,|
w: 3.~Wait- ing will not|save me—|Help- less, guil- ty,|lost, I lie;|
w: 4.~Faith in Christ will|save me—|Let me trust Thy|weep- ing Son,|
 [DF]2 [DF]2 [DF]2 E2 | [EG]2 [EB]2 [EB]4 | [Ac]2 [Ac]2 [GB]2 [EG]2 | [DB]2 [DB]2 [EG]4 | %8
w: That could not al-|lay my fears,|Could not wash the|sins of years—|
w: Ho- liest thoughts and|feel- ings, too,|Can- not form my|soul a- new—|
w: In my ear is|mer- cy’s cry;|If I wait I|can but die—|
w: Trust the work that|He has done;|To His arms, Lord,|help me run—|
 E2 [EG]2 [GB]2 [EG]2 | [DF]4 E4 ||"^Refrain" [Ac]2 [Ac]2 [Ac]2 [ce]2 | [GB]2 [FB]2 [GB]4 | %12
w: Weep- ing will not|save me.|||
w: Work- ing will not|save me.|||
w: Wait- ing will not|save me.|||
w: Faith in Christ will|save me.|||
 [Ac]2 [Ac]2 [Ac]2 [ce]2 | [GB]2 [FB]2 [GB]4 | [Ac]2 [Ac]2 [GB]2 [EG]2 | [FB]2 [FB]2 [EG]4 | %16
w: ||||
w: ||||
w: ||||
w: ||||
 E2 [EG]2 [GB]2 [EG]2 | [DF]4 E4 |] %18
w: ||
w: ||
w: ||
w: ||
V:2
 x8 | x4 E4 | x6 E2 | x8 | x6 E2 | x8 | x8 | x8 | E2 x6 | x4 E4 || x8 | x8 | x8 | x8 | x8 | x8 | %16
 E2 x6 | x4 E4 |] %18
V:3
 [E,E]2 [E,E]2 [E,E]2 [E,B,]2 | [B,,A,]4 [E,G,]4 | [B,,B,]2 [B,,B,]2 [B,,B,]2 [B,,G,]2 | %3
w: ~ ~ ~ ~|~ ~|~ ~ ~ ~|
 [E,B,]2 [E,G,]2 [E,G,]4 | [B,,B,]2 [B,,B,]2 [B,,B,]2 [B,,G,]2 | [E,B,]2 [E,G,]2 [E,G,]4 | %6
w: ~ ~ ~|~ ~ ~ ~|~ ~ ~|
 [A,,A,]2 [C,A,]2 [E,B,]2 [E,B,]2 | [B,,B,]2 [B,,B,]2 [E,B,]4 | [E,G,]2 [E,B,]2 [E,E]2 [E,B,]2 | %9
w: ~ ~ ~ ~|~ ~ ~|~ ~ ~ ~|
 [B,,A,]4 [E,G,]4 || [A,E]2 [A,E]2 [A,E]2 [A,E]2 | [E,E]2 [B,,D]2 [E,E]4 | %12
w: ~ ~|Je- sus wept and|died for me;|
 [A,E]2 [A,E]2 [A,E]2 [A,E]2 | [E,E]2 [B,,D]2 [E,E]4 | [A,,E]2 [C,E]2 [E,E]2 [E,B,]2 | %15
w: Je- sus suf- fered|on the tree;|Je- sus waits to|
 [D,B,]2 [D,B,]2 [E,B,]4 | [E,G,]2 [E,B,]2 [E,E]2 [E,B,]2 | (B,3 A,) [E,G,]4 |] %18
w: make me free;|He a- lone can|save * me.|
V:4
 x8 | x8 | x8 | x8 | x8 | x8 | x8 | x8 | x8 | x8 || x8 | x8 | x8 | x8 | x8 | x8 | x8 | B,,4 x4 |] %18

